X: 4
T:Miss Johnston's (Slip Jig)
M:3/4
L:1/8
R:Slip Jig
K:G
|: Bd cA GG | DG BA Gg | fd cA GD | (3EFG AB cA :|
|: Bd ^ce dd | Bd ga (3bag | Bd ^ce df | a2 fa (3gfe :|
